dist/img/telegram.svg

<svg width="75" height="75" viewBox="0 0 75 75" fill="none" xmlns="http://www.w3.org/2000/svg">
<path d="M0 27.5639C0 17.9156 0 13.0915 1.87768 9.40633C3.52932 6.16478 6.16478 3.52932 9.40633 1.87768C13.0915 0 17.9156 0 27.5639 0H47.4361C57.0844 0 61.9085 0 65.5937 1.87768C68.8352 3.52932 71.4707 6.16478 73.1223 9.40633C75 13.0915 75 17.9156 75 27.5639V47.4361C75 57.0844 75 61.9085 73.1223 65.5937C71.4707 68.8352 68.8352 71.4707 65.5937 73.1223C61.9085 75 57.0844 75 47.4361 75H27.5639C17.9156 75 13.0915 75 9.40633 73.1223C6.16478 71.4707 3.52932 68.8352 1.87768 65.5937C0 61.9085 0 57.0844 0 47.4361V27.5639Z" fill="url(#paint0_linear_378_118)"/>
<path fill-rule="evenodd" clip-rule="evenodd" d="M16.9735 37.1043C27.9055 32.3414 35.1952 29.2014 38.8426 27.6844C49.2568 23.3528 51.4207 22.6003 52.8312 22.5755C53.1414 22.57 53.835 22.6469 54.2843 23.0114C54.6637 23.3193 54.7681 23.7351 54.818 24.027C54.868 24.3189 54.9302 24.9837 54.8807 25.5032C54.3164 31.4329 51.8745 45.8225 50.6321 52.4638C50.1065 55.274 49.0714 56.2163 48.0694 56.3085C45.8917 56.5089 44.238 54.8693 42.1288 53.4867C38.8283 51.3232 36.9638 49.9764 33.7601 47.8652C30.0577 45.4254 32.4578 44.0844 34.5678 41.8928C35.12 41.3193 44.715 32.5919 44.9007 31.8002C44.9239 31.7012 44.9454 31.3321 44.7262 31.1372C44.5069 30.9423 44.1833 31.009 43.9498 31.062C43.6187 31.1371 38.3462 34.6221 28.132 41.5169C26.6354 42.5446 25.2799 43.0453 24.0653 43.0191C22.7264 42.9901 20.1508 42.262 18.2361 41.6396C15.8877 40.8762 14.0212 40.4726 14.1837 39.1762C14.2683 38.5009 15.1983 37.8103 16.9735 37.1043Z" fill="white"/>
<defs>
<linearGradient id="paint0_linear_378_118" x1="37.5" y1="0" x2="37.5" y2="75" gradientUnits="userSpaceOnUse">
<stop stop-color="#2AABEE"/>
<stop offset="1" stop-color="#229ED9"/>
</linearGradient>
</defs>
</svg>

<svg width="75" height="75" fill="none" xmlns="http://www.w3.org/2000/svg"><path d="M0 27.564C0 17.916 0 13.09 1.878 9.406a17.227 17.227 0 0 1 7.528-7.528C13.091 0 17.916 0 27.564 0h19.872c9.648 0 14.472 0 18.158 1.878a17.227 17.227 0 0 1 7.528 7.528C75 13.091 75 17.916 75 27.564v19.872c0 9.648 0 14.472-1.878 18.158a17.227 17.227 0 0 1-7.528 7.528C61.909 75 57.084 75 47.436 75H27.564c-9.648 0-14.473 0-18.158-1.878a17.227 17.227 0 0 1-7.528-7.528C0 61.909 0 57.084 0 47.436V27.564Z" fill="url(#a)"/><path fill-rule="evenodd" clip-rule="evenodd" d="M16.974 37.104c10.931-4.763 18.221-7.903 21.869-9.42C49.257 23.353 51.42 22.6 52.83 22.576c.31-.006 1.004.07 1.453.435.38.308.484.724.534 1.016.05.292.112.957.063 1.476-.565 5.93-3.007 20.32-4.249 26.96-.526 2.811-1.56 3.753-2.563 3.846-2.177.2-3.831-1.44-5.94-2.822-3.3-2.164-5.165-3.51-8.369-5.622-3.702-2.44-1.302-3.78.808-5.972.552-.574 10.147-9.301 10.333-10.093.023-.099.044-.468-.175-.663-.22-.195-.543-.128-.776-.075-.331.075-5.604 3.56-15.818 10.455-1.497 1.028-2.852 1.528-4.067 1.502-1.339-.029-3.914-.757-5.829-1.38-2.348-.763-4.215-1.166-4.052-2.463.084-.675 1.014-1.366 2.79-2.072Z" fill="#fff"/><defs><linearGradient id="a" x1="37.5" y1="0" x2="37.5" y2="75" gradientUnits="userSpaceOnUse"><stop stop-color="#2AABEE"/><stop offset="1" stop-color="#229ED9"/></linearGradient></defs></svg>
